X: 119008
T: The CRAIG OF BARNS
Q: "Highland Schottische."
R: Schottische.
%R: shottish
B: James Kerr "Merry Melodies" v.1 p.19 s.0 #8
Z: 2017 John Chambers <jc:trillian.mit.edu>
M: C
L: 1/8
K: Am
|:\
ve2 ud>uB A<A A>uB | d<G d>uB d<G Bd |\
e2 d>B A<A A>B | d<G d>B A2 A2 ::\
uB |\
vG>vBud>ue (d<B) d2 | e>^fg>b a>ge>f |\
g<b e<g G>AB>d | e<g d>uB A2 A2 :|

%%sep 1 1 500
%%sep 1 1 500

